X:102
T:Sixpenny Money
M:6/8
L:1/8
R:jig
K:D
fAA fAA | BAG FGE | DED AFA | def e2d |
fAA fAA | BAG FGE | DED AFA | def e2d ::
f3 g3 | afd edB | f3 g3 | afd e3 |
f3 g3 | afd edB | A3 AFA | def e2d :|
